X: 93
T: No_189_Song_of_Thanks_for_a_Gift.krn
N: Derived from No_189_Song_of_Thanks_for_a_Gift.krn
%%abc-version 2.0
%%abcx-abcm2ps-target-version 5.9.1 (29 Sep 2008)
%%abc-creator hum2abc beta
%%abcx-conversion-date 2019/03/15 08:29:13
%%humdrum-veritas 919989921
%%humdrum-veritas-data 3752898277
%%linebreak <none>
%%barnumbers 0
L: 1/4
M: 2/4
K: C clef=bass
[K:clef=bass][M:2/4]EE | 
EE ||  
[M:3/4]CC3/E//D// ||  
[M:2/4]C2 | 
C2- | 
C2 ]|:  
EE | 
E(3D/E/D/ | 
CC | 
C-C3//A,// | 
G,2- | 
G,2 | 
 [K:Eb] CC | 
B,B, | 
G,G, | 
F,2 | 
F,F, | 
G,F, | 
F,E,/F,/ | 
E,2 | 
C,3/C,/ | 
C,2 :|]  



